.icons/oomox-ad/48x48/apps/distributor-logo-linux-lite.svg

<svg width="48" height="48" version="1" xmlns="http://www.w3.org/2000/svg">
 <rect x="4" y="4" width="40" height="40" rx="2" ry="2" style="fill:#4f4f4f"/>
 <path d="m27.031485 8.0000005c-2.462526 1.4887869-4.992033 2.8742665-7.400085 4.4485535-0.883485 4.221279-1.739524 8.44875-2.56696 12.681358 0.928617 1.178945 1.947119 2.284122 2.908899 3.435914-0.939471-0.299761-2.119636-0.97566-3.156435-1.394041 0.816181 3.01447 1.669915 6.02002 2.560187 9.013447 1.190359-0.102383 2.371665-0.292642 3.561639-0.398928-0.85424 0.88006-1.776572 1.691639-2.635883 2.566712 1.502229-0.625082 2.979723-1.308064 4.476893-1.94517 0.287647 0.471236-0.565291 2.158687-0.68021 3.07415 0.656286-1.062862 1.281422-2.145282 1.905084-3.227656l0.574683-0.270281s-0.168288-0.168636 0 0c1.305201 0.20588 2.607518 0.45441 3.911656 0.651062-1.173614-0.576114-2.366753-1.111672-3.540384-1.687753 1.173657-0.48654 2.424177-0.855745 3.623041-1.309209-1.17906-0.01094-2.358187 0.02124-3.537277 0.0079 0.190478-0.420606 1.613856-1.162615 2.230429-1.737347-0.861208-1.00031-1.831565-1.901647-2.699025-2.896531 1.50029-4.913111 3.074637-9.803462 4.615358-14.70409-1.381708-2.104032-2.731524-4.229909-4.15161-6.3080825z" style="opacity:.2"/>
 <path d="m6 4c-1.108 0-2 0.892-2 2v1c0-1.108 0.892-2 2-2h36c1.108 0 2 0.892 2 2v-1c0-1.108-0.892-2-2-2h-36z" fill="#fff" style="opacity:.1"/>
 <path d="m6 45c-1.108 0-2-0.892-2-2v-1c0 1.108 0.892 2 2 2h36c1.108 0 2-0.892 2-2v1c0 1.108-0.892 2-2 2h-36z" opacity=".2"/>
 <path d="m27.031485 7.0000005c-2.462526 1.4887869-4.992033 2.8742665-7.400085 4.4485535-0.883485 4.221279-1.739524 8.44875-2.56696 12.681358 0.928617 1.178945 1.947119 2.284122 2.908899 3.435914-0.939471-0.299761-2.119636-0.97566-3.156435-1.394041 0.816181 3.01447 1.669915 6.02002 2.560187 9.013447 1.190359-0.102383 2.371665-0.292642 3.561639-0.398928-0.85424 0.88006-1.776572 1.691639-2.635883 2.566712 1.502229-0.625082 2.979723-1.308064 4.476893-1.94517 0.287647 0.471236-0.565291 2.158687-0.68021 3.07415 0.656286-1.062862 1.281422-2.145282 1.905084-3.227656l0.574683-0.270281s-0.168288-0.168636 0 0c1.305201 0.20588 2.607518 0.45441 3.911656 0.651062-1.173614-0.576114-2.366753-1.111672-3.540384-1.687753 1.173657-0.48654 2.424177-0.855745 3.623041-1.309209-1.17906-0.01094-2.358187 0.02124-3.537277 0.0079 0.190478-0.420606 1.613856-1.162615 2.230429-1.737347-0.861208-1.00031-1.831565-1.901647-2.699025-2.896531 1.50029-4.913111 3.074637-9.803462 4.615358-14.70409-1.381708-2.104032-2.731524-4.2299088-4.15161-6.3080825z" style="fill:#ffc107"/>
 <path d="m25.835601 12.239164c-2.074761 5.577562-3.385224 12.3183-3.703708 18.549495-0.07504 0.868256-0.05387 0.692326 0.512571 1.37406 2.811423 3.384152 5.616872 6.964603 8.443857 9.837281l-9.23e-4 -0.198413c-2.702425-3.705431-5.404849-6.829442-8.107274-10.12433-0.236418-0.283799-0.300857-0.287808-0.281139-0.631663 0.358705-6.24569 1.763711-13.161152 3.136616-18.80643z" style="opacity:.2"/>
 <path d="m25.835601 11.239164c-2.074761 5.577562-3.385224 12.3183-3.703708 18.549495-0.07504 0.868256-0.05387 0.692326 0.512571 1.37406 2.811423 3.384152 5.616872 6.964603 8.443857 9.837281l-9.23e-4 -0.198413c-2.702425-3.705431-5.404849-6.829442-8.107274-10.12433-0.236418-0.283799-0.300857-0.287808-0.281139-0.631663 0.358705-6.24569 1.763711-13.161152 3.136616-18.80643z" style="fill:#ffffff"/>
 <path d="m27.03125 7c-2.462526 1.4887869-4.992339 2.8749318-7.400391 4.449219-0.883485 4.221279-1.73897 8.449032-2.566406 12.68164 0.052399 0.066524 0.109165 0.129237 0.162109 0.195313 0.778337-3.96347 1.576862-7.923479 2.404297-11.876953 2.408052-1.574287 4.937865-2.9604321 7.400391-4.449219 1.346862 1.9710165 2.631852 3.984919 3.939453 5.982422 0.070771-0.224645 0.142251-0.449143 0.212891-0.673828-1.381708-2.104032-2.732258-4.2304203-4.152344-6.308594zm-10.214844 19.171875c0.103665 0.382873 0.213486 0.763906 0.31836 1.146484 0.956713 0.417354 1.991025 0.977834 2.83789 1.248047-0.438595-0.525246-0.889607-1.041319-1.33789-1.558594-0.606678-0.285963-1.234004-0.600131-1.81836-0.835937zm9.986328 2.089844c-0.076881 0.250441-0.157864 0.499444-0.234375 0.75 0.694219 0.796195 1.44282 1.543314 2.160157 2.318359 0.204038-0.144999 0.396248-0.288752 0.539062-0.421875-0.786691-0.913757-1.657626-1.751155-2.464844-2.646484zm3.771485 4.376953c-0.766943-0.007116-1.53381 8.82e-4 -2.300781 0.005859-0.562679 0.379119-1.121784 0.74902-1.236329 1.001953 0.244152 0.002763 0.488268-0.001598 0.732422-0.001953 0.928834-0.34282 1.878241-0.655435 2.804688-1.005859zm-2.441407 1.871094c-0.397127 0.141505-0.796524 0.277849-1.18164 0.4375 0.105645 0.051856 0.212427 0.101085 0.318359 0.152343 1.074316 0.179543 2.146546 0.373184 3.220703 0.535157-0.781881-0.383817-1.56975-0.75321-2.357422-1.125zm-5.193359 1.277343c-0.386204 0.034495-0.771266 0.082596-1.15625 0.128907-0.498427 0.474089-0.998558 0.946749-1.480469 1.4375 0.624036-0.259663 1.240693-0.536387 1.859375-0.808594 0.260529-0.251126 0.525303-0.498153 0.777344-0.757813zm1.839844 0.621094c-0.034064 0.014495-0.067519 0.03038-0.101563 0.044922-0.194629 0.675293-0.50924 1.480555-0.578125 2.029297 0.190847-0.309078 0.366427-0.62755 0.552735-0.939453 0.14751-0.491477 0.250083-0.933049 0.126953-1.134766z" style="fill:#ffffff;opacity:.2"/>
</svg>

<svg xmlns="http://www.w3.org/2000/svg" width="48" height="48" version="1">
 <rect style="fill:#636e72" width="40" height="40" x="4" y="4" rx="2" ry="2"/>
 <path style="opacity:0.2" d="m 27.031485,8.0000005 c -2.462526,1.4887869 -4.992033,2.8742665 -7.400085,4.4485535 -0.883485,4.221279 -1.739524,8.44875 -2.56696,12.681358 0.928617,1.178945 1.947119,2.284122 2.908899,3.435914 -0.939471,-0.299761 -2.119636,-0.97566 -3.156435,-1.394041 0.816181,3.01447 1.669915,6.02002 2.560187,9.013447 1.190359,-0.102383 2.371665,-0.292642 3.561639,-0.398928 -0.85424,0.88006 -1.776572,1.691639 -2.635883,2.566712 1.502229,-0.625082 2.979723,-1.308064 4.476893,-1.94517 0.287647,0.471236 -0.565291,2.158687 -0.68021,3.07415 0.656286,-1.062862 1.281422,-2.145282 1.905084,-3.227656 l 0.574683,-0.270281 c 0,0 -0.168288,-0.168636 0,0 1.305201,0.20588 2.607518,0.45441 3.911656,0.651062 -1.173614,-0.576114 -2.366753,-1.111672 -3.540384,-1.687753 1.173657,-0.48654 2.424177,-0.855745 3.623041,-1.309209 -1.17906,-0.01094 -2.358187,0.02124 -3.537277,0.0079 0.190478,-0.420606 1.613856,-1.162615 2.230429,-1.737347 -0.861208,-1.00031 -1.831565,-1.901647 -2.699025,-2.896531 1.50029,-4.913111 3.074637,-9.803462 4.615358,-14.70409 -1.381708,-2.104032 -2.731524,-4.229909 -4.15161,-6.3080825 z"/>
 <path fill="#fff" style="opacity:0.1" d="m6 4c-1.108 0-2 0.892-2 2v1c0-1.108 0.892-2 2-2h36c1.108 0 2 0.892 2 2v-1c0-1.108-0.892-2-2-2h-36z"/>
 <path opacity=".2" d="m6 45c-1.108 0-2-0.892-2-2v-1c0 1.108 0.892 2 2 2h36c1.108 0 2-0.892 2-2v1c0 1.108-0.892 2-2 2h-36z"/>
 <path style="fill:#ffe082" d="M 27.031485,7.0000005 C 24.568959,8.4887874 22.039452,9.874267 19.6314,11.448554 c -0.883485,4.221279 -1.739524,8.44875 -2.56696,12.681358 0.928617,1.178945 1.947119,2.284122 2.908899,3.435914 -0.939471,-0.299761 -2.119636,-0.97566 -3.156435,-1.394041 0.816181,3.01447 1.669915,6.02002 2.560187,9.013447 1.190359,-0.102383 2.371665,-0.292642 3.561639,-0.398928 -0.85424,0.88006 -1.776572,1.691639 -2.635883,2.566712 1.502229,-0.625082 2.979723,-1.308064 4.476893,-1.94517 0.287647,0.471236 -0.565291,2.158687 -0.68021,3.07415 0.656286,-1.062862 1.281422,-2.145282 1.905084,-3.227656 l 0.574683,-0.270281 c 0,0 -0.168288,-0.168636 0,0 1.305201,0.20588 2.607518,0.45441 3.911656,0.651062 -1.173614,-0.576114 -2.366753,-1.111672 -3.540384,-1.687753 1.173657,-0.48654 2.424177,-0.855745 3.623041,-1.309209 -1.17906,-0.01094 -2.358187,0.02124 -3.537277,0.0079 0.190478,-0.420606 1.613856,-1.162615 2.230429,-1.737347 -0.861208,-1.00031 -1.831565,-1.901647 -2.699025,-2.896531 1.50029,-4.913111 3.074637,-9.803462 4.615358,-14.70409 -1.381708,-2.104032 -2.731524,-4.2299088 -4.15161,-6.3080825 z"/>
 <path style="opacity:0.2" d="m 25.835601,12.239164 c -2.074761,5.577562 -3.385224,12.3183 -3.703708,18.549495 -0.07504,0.868256 -0.05387,0.692326 0.512571,1.37406 2.811423,3.384152 5.616872,6.964603 8.443857,9.837281 l -9.23e-4,-0.198413 c -2.702425,-3.705431 -5.404849,-6.829442 -8.107274,-10.12433 -0.236418,-0.283799 -0.300857,-0.287808 -0.281139,-0.631663 0.358705,-6.24569 1.763711,-13.161152 3.136616,-18.80643 z"/>
 <path style="fill:#ffffff" d="m 25.835601,11.239164 c -2.074761,5.577562 -3.385224,12.3183 -3.703708,18.549495 -0.07504,0.868256 -0.05387,0.692326 0.512571,1.37406 2.811423,3.384152 5.616872,6.964603 8.443857,9.837281 l -9.23e-4,-0.198413 c -2.702425,-3.705431 -5.404849,-6.829442 -8.107274,-10.12433 -0.236418,-0.283799 -0.300857,-0.287808 -0.281139,-0.631663 0.358705,-6.24569 1.763711,-13.161152 3.136616,-18.80643 z"/>
 <path style="fill:#ffffff;opacity:0.2" d="M 27.03125 7 C 24.568724 8.4887869 22.038911 9.8749318 19.630859 11.449219 C 18.747374 15.670498 17.891889 19.898251 17.064453 24.130859 C 17.116852 24.197383 17.173618 24.260096 17.226562 24.326172 C 18.004899 20.362702 18.803424 16.402693 19.630859 12.449219 C 22.038911 10.874932 24.568724 9.4887869 27.03125 8 C 28.378112 9.9710165 29.663102 11.984919 30.970703 13.982422 C 31.041474 13.757777 31.112954 13.533279 31.183594 13.308594 C 29.801886 11.204562 28.451336 9.0781737 27.03125 7 z M 16.816406 26.171875 C 16.920071 26.554748 17.029892 26.935781 17.134766 27.318359 C 18.091479 27.735713 19.125791 28.296193 19.972656 28.566406 C 19.534061 28.04116 19.083049 27.525087 18.634766 27.007812 C 18.028088 26.721849 17.400762 26.407681 16.816406 26.171875 z M 26.802734 28.261719 C 26.725853 28.51216 26.64487 28.761163 26.568359 29.011719 C 27.262578 29.807914 28.011179 30.555033 28.728516 31.330078 C 28.932554 31.185079 29.124764 31.041326 29.267578 30.908203 C 28.480887 29.994446 27.609952 29.157048 26.802734 28.261719 z M 30.574219 32.638672 C 29.807276 32.631556 29.040409 32.639554 28.273438 32.644531 C 27.710759 33.02365 27.151654 33.393551 27.037109 33.646484 C 27.281261 33.649247 27.525377 33.644886 27.769531 33.644531 C 28.698365 33.301711 29.647772 32.989096 30.574219 32.638672 z M 28.132812 34.509766 C 27.735685 34.651271 27.336288 34.787615 26.951172 34.947266 C 27.056817 34.999122 27.163599 35.048351 27.269531 35.099609 C 28.343847 35.279152 29.416077 35.472793 30.490234 35.634766 C 29.708353 35.250949 28.920484 34.881556 28.132812 34.509766 z M 22.939453 35.787109 C 22.553249 35.821604 22.168187 35.869705 21.783203 35.916016 C 21.284776 36.390105 20.784645 36.862765 20.302734 37.353516 C 20.92677 37.093853 21.543427 36.817129 22.162109 36.544922 C 22.422638 36.293796 22.687412 36.046769 22.939453 35.787109 z M 24.779297 36.408203 C 24.745233 36.422698 24.711778 36.438583 24.677734 36.453125 C 24.483105 37.128418 24.168494 37.93368 24.099609 38.482422 C 24.290456 38.173344 24.466036 37.854872 24.652344 37.542969 C 24.799854 37.051492 24.902427 36.60992 24.779297 36.408203 z"/>
</svg>
